public/assets/images/icons/grey/pause/folder-edit-empty2.svg

<svg width="16" height="16" xmlns="http://www.w3.org/2000/svg" viewBox="0 0 16 16" shape-rendering="geometricPrecision" fill="#6e6e6e"><defs><mask id="a"><rect fill="#fff" width="100%" height="100%"/><path fill="#000" d="M13.135-1H9.585v7.956H16V-1z"/></mask></defs><g fill="#cb1800"><path d="M10.585 0h1.55v5.956h-1.55zM13.45 0H15v5.956h-1.55z"/></g><path mask="url(#a)" d="M7.394 4.755l-.816-1.923h-3.78l-.816 1.923H.861V14h14.278V4.755H7.394zm-1.226 8.237l-.081-.852.736.293-.655.559zm1.272-1.08l-1.443-.579L7.556 7.44 9 8.019l-1.56 3.893zm1.952-4.87l-.233.58-1.444-.58.232-.578a.778.778 0 0 1 1.445.578z"/></svg>

<?xml version="1.0"?><!DOCTYPE svg PUBLIC "-//W3C//DTD SVG 1.1//EN" "http://www.w3.org/Graphics/SVG/1.1/DTD/svg11.dtd"><svg width="16px" height="16px" xmlns="http://www.w3.org/2000/svg" viewBox="0 0 16 16" shape-rendering="geometricPrecision" fill="#6e6e6e"><defs><mask id="pause-path"><rect fill="#fff" width="100%" height="100%"/><polygon points="13.135,-1 12.45,-1 9.585,-1 9.585,6.956 12.45,6.956 13.135,6.956 16,6.956 16,-1 " fill="#000"/></mask></defs><g fill="#cb1800"><g><rect x="10.585" width="1.55" height="5.956"/></g><g><rect x="13.45" width="1.55" height="5.956"/></g></g><path mask="url(#pause-path)" d="M7.394,4.755L6.578,2.832H2.798L1.982,4.755H0.861V14h14.278V4.755H7.394z M6.168,12.992 L6.087,12.14l0.736,0.293L6.168,12.992z M7.44,11.912l-1.443-0.579L7.556,7.44L9,8.019L7.44,11.912z M9.392,7.042l-0.233,0.58 l-1.444-0.58l0.232-0.578c0.163-0.396,0.612-0.588,1.01-0.428C9.354,6.193,9.548,6.644,9.392,7.042L9.392,7.042z"/></svg>
